icon/lg/aws-athena.svg

<?xml version="1.0" encoding="UTF-8"?>
<svg viewBox="0 0 256 256" version="1.1" xmlns="http://www.w3.org/2000/svg" xmlns:xlink="http://www.w3.org/1999/xlink" preserveAspectRatio="xMidYMid" height="1em" width="1em">
  <defs>
    <linearGradient x1="0%" y1="100%" x2="100%" y2="0%" id="linearGradient-1">
      <stop stop-color="#4D27A8" offset="0%"/>
      <stop stop-color="#A166FF" offset="100%"/>
    </linearGradient>
  </defs>
  <g>
    <rect fill="url(#linearGradient-1)" x="0" y="0" width="256" height="256"/>
    <path d="M122.54416,87.1255398 C136.919421,87.1255398 144.7931,90.346184 146.22872,91.9613418 C144.7931,93.5764998 136.919421,96.7971437 122.54416,96.7971437 C108.1689,96.7971437 100.29522,93.5764998 98.8596,91.9613418 C100.29522,90.346184 108.1689,87.1255398 122.54416,87.1255398 L122.54416,87.1255398 Z M120.908442,112.903588 C120.381201,112.632783 120.009591,112.094397 120.009591,111.456071 C120.009591,110.559836 120.733754,109.828018 121.6199,109.828018 C121.877168,109.828018 122.112204,109.902167 122.331358,110.015002 L120.908442,112.903588 Z M139.415876,139.490827 C139.177664,139.684259 138.631366,140.058228 137.507009,140.509569 C136.506521,140.909329 135.321817,141.270402 133.978305,141.586341 C130.408311,142.424547 126.01887,142.88556 121.616724,142.88556 C111.98981,142.88556 105.281778,140.806165 103.836629,139.516618 L99.5710579,99.6825056 C106.110753,102.358316 115.74402,103.24488 122.54416,103.24488 C129.229959,103.24488 138.653599,102.384107 145.190119,99.8114602 L142.639669,117.329959 C137.834152,115.518145 131.837579,112.887468 126.155444,110.12139 C125.577385,108.116144 123.776507,106.639612 121.6199,106.639612 C119.002751,106.639612 116.87473,108.802828 116.87473,111.456071 C116.87473,114.115762 119.002751,116.275754 121.6199,116.275754 C122.23925,116.275754 122.830014,116.146799 123.369959,115.927576 C131.310338,119.847799 137.227508,122.362417 141.680472,123.913097 L139.415876,139.490827 Z M92.3897798,92.3095197 L97.531969,140.319361 C97.8940502,149.230132 120.638469,149.333296 121.616724,149.333296 C126.485764,149.333296 131.383389,148.811029 135.407573,147.86966 C137.055995,147.482796 138.548787,147.025006 139.84148,146.505964 C143.595691,144.997193 145.564905,142.940365 145.701479,140.396734 L147.842205,125.683 C149.300059,125.98282 150.491115,126.114999 151.440785,126.114999 C154.429543,126.114999 155.217228,124.889929 155.76035,124.045276 C156.332058,123.155488 156.497217,122.062597 156.23042,120.963258 C155.6206,118.435745 152.053782,115.108714 149.671668,113.132483 L152.68266,92.4320266 L152.654074,92.4288026 C152.666779,92.2708333 152.717597,92.1225354 152.717597,91.9613418 C152.717597,83.0537949 133.749622,80.6778042 122.54416,80.6778042 C111.338699,80.6778042 92.3707229,83.0537949 92.3707229,91.9613418 C92.3707229,92.080625 92.4120131,92.1870125 92.4183651,92.3062957 L92.3897798,92.3095197 Z M121.073602,64.1909434 C148.756937,64.1909434 171.279025,87.051391 171.279025,115.150624 C171.279025,143.249857 148.756937,166.110304 121.073602,166.110304 C93.3870915,166.110304 70.8650026,143.249857 70.8650026,115.150624 C70.8650026,87.051391 93.3870915,64.1909434 121.073602,64.1909434 L121.073602,64.1909434 Z M41.5523024,133.871625 L41.5523024,140.319361 L70.137664,140.319361 L70.137664,139.938944 C79.2754512,159.198332 98.6436218,172.55804 121.073602,172.55804 C152.257055,172.55804 177.631328,146.805783 177.631328,115.150624 C177.631328,83.4954646 152.257055,57.7432077 121.073602,57.7432077 C96.8109824,57.7432077 76.1310614,73.359624 68.1144557,95.1852099 L41.5523024,95.1852099 L41.5523024,101.632946 L66.1642989,101.632946 C65.1733395,105.782064 64.592104,110.085927 64.5444618,114.528417 L35.2,114.528417 L35.2,120.976153 L64.8049059,120.976153 C65.2527434,125.454106 66.2595834,129.754746 67.6634422,133.871625 L41.5523024,133.871625 Z M214.655724,211.312157 C210.81258,215.219484 204.149015,215.242052 200.309048,211.347619 L166.184479,176.707158 C171.676044,172.551593 176.576846,167.648089 180.778894,162.16429 L214.693837,196.753169 C216.602704,198.693938 217.65401,201.27948 217.647715,204.029439 C217.644482,206.785846 216.583647,209.368164 214.655724,211.312157 L214.655724,211.312157 Z M219.191268,192.201068 L184.517224,156.832012 C192.20351,144.819881 196.688236,130.512355 196.688236,115.150624 C196.688236,72.8276858 162.76694,38.4 121.073602,38.4 C91.112967,38.4 63.944169,56.3827354 51.8525613,84.2143872 L57.6649181,86.8128246 C68.7401574,61.3217011 93.628479,44.847736 121.073602,44.847736 C159.266821,44.847736 190.335933,76.3836122 190.335933,115.150624 C190.335933,153.914412 159.266821,185.453512 121.073602,185.453512 C95.5595789,185.453512 72.1831056,171.278165 60.059736,148.459628 L54.4697098,151.522302 C67.6983798,176.429906 93.2219315,191.901248 121.073602,191.901248 C135.652136,191.901248 149.274649,187.681205 160.832664,180.395263 L195.821146,215.909392 C198.927422,219.062335 203.059595,220.8 207.449036,220.8 C211.863886,220.8 216.021468,219.04944 219.140449,215.880378 C222.265782,212.727435 223.993608,208.523511 224.000039,204.039111 C224.009489,199.561158 222.297543,195.357234 219.191268,192.201068 L219.191268,192.201068 Z" fill="#FFFFFF"/>
  </g>
</svg>

<svg width="256" height="256" xmlns="http://www.w3.org/2000/svg" preserveAspectRatio="xMidYMid"><defs><linearGradient x1="0%" y1="100%" x2="100%" y2="0%" id="a"><stop stop-color="#4D27A8" offset="0%"/><stop stop-color="#A166FF" offset="100%"/></linearGradient></defs><path fill="url(#a)" d="M0 0h256v256H0z"/><path d="M122.544 87.126c14.375 0 22.25 3.22 23.685 4.835-1.436 1.615-9.31 4.836-23.685 4.836-14.375 0-22.249-3.22-23.684-4.836 1.435-1.615 9.309-4.835 23.684-4.835Zm-1.636 25.778a1.628 1.628 0 0 1-.898-1.448c0-.896.724-1.628 1.61-1.628.257 0 .492.074.711.187l-1.423 2.889Zm18.508 26.587c-.238.193-.785.567-1.909 1.019-1 .4-2.185.76-3.529 1.076-3.57.839-7.96 1.3-12.361 1.3-9.627 0-16.335-2.08-17.78-3.37L99.57 99.684c6.54 2.675 16.173 3.562 22.973 3.562 6.686 0 16.11-.86 22.646-3.434l-2.55 17.519c-4.806-1.812-10.802-4.443-16.485-7.209-.578-2.005-2.378-3.481-4.535-3.481-2.617 0-4.745 2.163-4.745 4.816 0 2.66 2.128 4.82 4.745 4.82.62 0 1.21-.13 1.75-.348 7.94 3.92 13.858 6.434 18.31 7.985l-2.264 15.578ZM92.39 92.31l5.142 48.01c.362 8.91 23.106 9.013 24.085 9.013 4.869 0 9.766-.522 13.79-1.463 1.649-.387 3.142-.845 4.434-1.364 3.755-1.509 5.724-3.566 5.86-6.11l2.141-14.713c1.458.3 2.65.432 3.599.432 2.989 0 3.776-1.225 4.32-2.07.571-.89.736-1.982.47-3.082-.61-2.527-4.177-5.854-6.56-7.83l3.012-20.701-.029-.003c.013-.158.064-.306.064-.468 0-8.907-18.968-11.283-30.174-11.283-11.205 0-30.173 2.376-30.173 11.283 0 .12.041.226.047.345l-.028.004Zm28.684-28.12c27.683 0 50.205 22.861 50.205 50.96 0 28.1-22.522 50.96-50.205 50.96-27.687 0-50.209-22.86-50.209-50.96 0-28.099 22.522-50.96 50.209-50.96Zm-79.522 69.682v6.447h28.586v-.38c9.137 19.26 28.506 32.619 50.936 32.619 31.183 0 56.557-25.752 56.557-57.407 0-31.656-25.374-57.408-56.557-57.408-24.263 0-44.943 15.617-52.96 37.442H41.552v6.448h24.612c-.99 4.15-1.572 8.453-1.62 12.895H35.2v6.448h29.605c.448 4.478 1.455 8.779 2.858 12.896h-26.11Zm173.104 77.44c-3.843 3.907-10.507 3.93-14.347.036l-34.125-34.64a76.788 76.788 0 0 0 14.595-14.544l33.915 34.59a10.278 10.278 0 0 1 2.954 7.275 10.283 10.283 0 0 1-2.992 7.283Zm4.535-19.11-34.674-35.37c7.687-12.012 12.171-26.32 12.171-41.681 0-42.323-33.921-76.751-75.614-76.751-29.961 0-57.13 17.983-69.221 45.814l5.812 2.599c11.075-25.491 35.963-41.965 63.409-41.965 38.193 0 69.262 31.536 69.262 70.303 0 38.763-31.07 70.303-69.262 70.303-25.514 0-48.89-14.176-61.014-36.994l-5.59 3.062c13.228 24.908 38.752 40.38 66.604 40.38 14.578 0 28.2-4.22 39.759-11.507l34.988 35.514c3.106 3.153 7.239 4.891 11.628 4.891 4.415 0 8.572-1.75 11.691-4.92 3.126-3.153 4.854-7.356 4.86-11.84.01-4.479-1.702-8.683-4.809-11.839Z" fill="#FFF"/></svg>
